!!!ONB: MCCC : IJH0415_01 : Extracted Monophonic Melody
!!!COM: Haydn, Joseph
!!!OPR: String Quartet in C major
!!!OMV: 1
!!!SCT: Hob.III:6 ; Op.1 No.6
!!!ODT: 1757///
**kern
*thru
*k[]
*C:
*clefF
*M6/8
8cc
=1
8cc
8gg
8ff
8ee
8aa
8gg
=2
4.ff
4ee
8gg
=3
8a
8ff
8ee
8dd
8cc
8b
=4
4cc
4.r
8cc
=5
8cc
8gg
8ff
8ee
8aa
8gg
=6
4.ff
4ee
8ccc
=7
8ccc
8bb
8aa
8gg
8ff
8ee
=8
4dd
4.r
8gg
=9
8gg
8bb
8gg
4ff#
8dd
=10
8cc
8b
8a
4b
8gg
=11
8gg
8bb
8gg
4ff#
8dd
=12
8cc
8b
8a
4b
8dd
=13
8ee
8cc
8a
8ff#
8dd
8b
=14
8gg
8ee
8cc
8aa
8ff#
8cc
=15
8b
8dd
8g
8a
8g
8f#
=16
4g
2r
=17
2.ddd
=18
2.ddd
=19
2.ddd
=20
4ddd
8ddd
8ddd
8bb
8gg
=21
8ee
8ccc
8bb
8aa
8gg
8ff#
=22
8gg
8bb
8gg
8dd
8cc
8b
=23
8a
8ee
8dd
8cc
8b
8a
=24
4g
2r
=25
2.r
=26
4.ddd
8bb
4r
=27
2.r
=28
2ccc
4r
=29
2.r
=30
4ddd
8bb
4ddd
8bb
=31
8ccc
8cc
8dd
8ee
8gg
8aa
=32
8bb-
8cc
8bb-
8aa
8cc
8aa
=33
8gg
8a
8gg
8ff
8a
8ff
=34
8ff
8dd
8ff
8ee
8cc
8ee
=35
8dd
8ff
8gg
8aa
8a
8cc
=36
4b
8gg
4dd
8ee
=37
4dd
8gg
4dd
8cc
=38
8b
8gg
8gg
8gg
8gg
8gg
=39
8gg
8gg
8gg
8gg
8gg
8ff#
=40
4gg
4.r
8cc
=41
8cc
8gg
8ff
8ee
8aa
8gg
=42
4.ff
4ee
8gg
=43
8a
8ff
8ee
8dd
8cc
8b
=44
4cc
4.r
8cc
=45
8cc
8gg
8ff
8ee
8aa
8gg
=46
4.ff
4ee
8ccc
=47
8ccc
8bb
8aa
8gg
8ff
8ee
=48
4dd
4.r
8cc
=49
8cc
8ee
8cc
4b
8ff
=50
8ff
8aa
8ff
4ee
8cc
=51
8cc
8ee
8cc
4b
8ff
=52
8ff
8aa
8ff
4ee
8g
=53
8a
8ff
8dd
8b
8gg
8ee
=54
8cc
8aa
8ff
8dd
8gg
8ff
=55
8ee
8gg
8cc
8dd
8cc
8b
=56
4cc
2r
=57
2.gg
=58
2.gg[
=59
2.gg]
=60
4gg
8gg
8gg
8ee
8cc
=61
8a
8ff
8ee
8dd
8cc
8b
=62
8cc
8cc
8cc
8ccc
8ccc
8ccc
=63
8dd
8aa
8gg
8ff
8ee
8dd
=64
4cc
2r
==
*-
